build/svg/cmd/sc_mailmergeemaildocuments.svg

<?xml version="1.0" encoding="UTF-8" standalone="no"?>
<svg
   xmlns:dc="http://purl.org/dc/elements/1.1/"
   xmlns:cc="http://creativecommons.org/ns#"
   xmlns:rdf="http://www.w3.org/1999/02/22-rdf-syntax-ns#"
   xmlns:svg="http://www.w3.org/2000/svg"
   xmlns="http://www.w3.org/2000/svg"
   xmlns:sodipodi="http://sodipodi.sourceforge.net/DTD/sodipodi-0.dtd"
   xmlns:inkscape="http://www.inkscape.org/namespaces/inkscape"
   viewBox="0 0 16 16"
   version="1.1"
   id="svg4"
   sodipodi:docname="sc_mailmergeemaildocuments.svg"
   inkscape:export-filename="/home/jupiter007/Libreoffice yaru theme fullcolor/build/cmd/sc_mailmergeemaildocuments.png"
   inkscape:export-xdpi="96"
   inkscape:export-ydpi="96"
   inkscape:version="0.92.5 (2060ec1f9f, 2020-04-08)">
  <metadata
     id="metadata10">
    <rdf:RDF>
      <cc:Work
         rdf:about="">
        <dc:format>image/svg+xml</dc:format>
        <dc:type
           rdf:resource="http://purl.org/dc/dcmitype/StillImage" />
      </cc:Work>
    </rdf:RDF>
  </metadata>
  <defs
     id="defs8" />
  <sodipodi:namedview
     pagecolor="#ffffff"
     bordercolor="#666666"
     borderopacity="1"
     objecttolerance="10"
     gridtolerance="10"
     guidetolerance="10"
     inkscape:pageopacity="0"
     inkscape:pageshadow="2"
     inkscape:window-width="1920"
     inkscape:window-height="1011"
     id="namedview6"
     showgrid="false"
     inkscape:zoom="14.75"
     inkscape:cx="0.44067797"
     inkscape:cy="8"
     inkscape:window-x="0"
     inkscape:window-y="32"
     inkscape:window-maximized="1"
     inkscape:current-layer="svg4" />
  <path
     sodipodi:nodetypes="ccccccccc"
     style="opacity:0.6;fill:#000000;stroke:#000000;stroke-width:2;stroke-linejoin:round;stroke-miterlimit:4;stroke-dasharray:none"
     id="path815"
     d="M 0.99999982,11.004759 V 3.0047589 c 0,-2.0000006 0.99999998,-2.0000006 2.99999998,-2.0000006 h 4 L 11,4.0047589 v 7.0000001 c 0,2 -1.0000002,2 -3.0000002,2 h -4 c -2,0 -2.99999998,0 -2.99999998,-2 z"
     inkscape:connector-curvature="0" />
  <path
     inkscape:connector-curvature="0"
     d="M 0.99999982,11.004759 V 3.0047589 c 0,-2.0000006 0.99999998,-2.0000006 2.99999998,-2.0000006 h 4 L 11,4.0047589 v 7.0000001 c 0,2 -1.0000002,2 -3.0000002,2 h -4 c -2,0 -2.99999998,0 -2.99999998,-2 z"
     id="path2"
     style="fill:#ffffff"
     sodipodi:nodetypes="ccccccccc" />
  <path
     inkscape:connector-curvature="0"
     d="M 7.9999998,4.0047589 V 1.0047583 L 11,4.0047589 Z"
     id="path4"
     style="fill:#6d6d6d;fill-opacity:1" />
  <rect
     ry="2"
     y="6.0000005"
     x="3.0000002"
     height="9"
     width="12"
     id="rect835"
     style="opacity:0.6;fill:#000609;fill-opacity:1;stroke:#000000;stroke-width:2;stroke-linecap:round;stroke-linejoin:round;stroke-miterlimit:4;stroke-dasharray:none;stroke-opacity:1"
     rx="2" />
  <rect
     style="opacity:1;fill:#aee3f8;fill-opacity:1;stroke:none;stroke-width:2.36705971;stroke-linecap:round;stroke-linejoin:round;stroke-miterlimit:4;stroke-dasharray:none;stroke-opacity:1"
     id="rect833"
     width="12"
     height="9"
     x="3.0000002"
     y="6.0000005"
     ry="2" />
  <path
     style="fill:#ffffff;fill-opacity:1;stroke:none;stroke-width:0.71428573px;stroke-linecap:butt;stroke-linejoin:miter;stroke-opacity:1"
     d="m 8.9999998,13 4.8571402,-3.2382769 3e-6,-1.049107 c 0,-0.7142855 0,-0.7142855 -0.714286,-0.7142855 H 4.8571578 c -0.7142862,0 -0.7142862,0 -0.7142862,0.7142855 l -2.93e-5,1.049107 z"
     id="path839"
     inkscape:connector-curvature="0"
     sodipodi:nodetypes="cccccccc" />
  <path
     sodipodi:nodetypes="ccccccccccccccccccccc"
     inkscape:connector-curvature="0"
     id="path837"
     d="m 5.5714738,7.1428576 c -1.7142857,0 -1.7142857,0.857143 -1.7142857,1.7142855 l 0.00163,0.743303 -0.8588168,-0.518972 v 0.808593 L 8.1428578,13.571429 C 8.9999998,14 8.9999998,14 9.8571438,13.571429 11.556653,12.544514 13.955349,10.713353 15.000001,9.9084821 v -0.827008 l -0.858806,0.518973 0.0017,-0.743304 c 0,-0.8571425 0,-1.7142855 -1.714286,-1.7142855 z m 6.8571432,0.857143 c 0.857143,0 0.857143,0 0.857143,0.8571425 l -3e-6,1.2589289 -4.2874212,2.586495 -4.28404,-2.586495 3.5e-5,-1.2589289 c 0,-0.8571425 0,-0.8571425 0.857143,-0.8571425 z"
     style="font-style:normal;font-variant:normal;font-weight:normal;font-stretch:normal;font-size:15px;line-height:125%;font-family:Ubuntu;-inkscape-font-specification:Ubuntu;text-align:center;letter-spacing:0px;word-spacing:0px;writing-mode:lr-tb;text-anchor:middle;display:inline;opacity:1;fill:#465b63;fill-opacity:1;stroke:none;stroke-width:0.85697323" />
  <path
     style="color:#000000;font-weight:400;line-height:normal;font-family:sans-serif;font-variant-ligatures:normal;font-variant-position:normal;font-variant-caps:normal;font-variant-numeric:normal;font-variant-alternates:normal;font-feature-settings:normal;text-indent:0;text-align:start;text-decoration:none;text-decoration-line:none;text-decoration-style:solid;text-decoration-color:#000000;text-transform:none;text-orientation:mixed;white-space:normal;shape-padding:0;overflow:visible;isolation:auto;mix-blend-mode:normal;fill:#a7a7f1;fill-opacity:1;stroke-width:0.87481779;marker:none"
     d="M 5.9999998,9.0000001 V 10 H 12 V 9.0000001 Z"
     id="path2005"
     inkscape:connector-curvature="0"
     sodipodi:nodetypes="ccccc" />
</svg>

<svg xmlns="http://www.w3.org/2000/svg" viewBox="0 0 16 16"><path d="M1 11.005v-8c0-2 1-2 3-2h4l3 3v7c0 2-1 2-3 2H4c-2 0-3 0-3-2z" opacity=".6" stroke="#000" stroke-width="2" stroke-linejoin="round"/><path d="M1 11.005v-8c0-2 1-2 3-2h4l3 3v7c0 2-1 2-3 2H4c-2 0-3 0-3-2z" fill="#fff"/><path d="M8 4.005v-3l3 3z" fill="#6d6d6d"/><rect ry="2" y="6" x="3" height="9" width="12" rx="2" opacity=".6" fill="#000609" stroke="#000" stroke-width="2" stroke-linecap="round" stroke-linejoin="round"/><rect width="12" height="9" x="3" y="6" ry="2" fill="#aee3f8"/><path d="M9 13l4.857-3.238v-1.05c0-.714 0-.714-.714-.714H4.857c-.714 0-.714 0-.714.715v1.049z" fill="#fff"/><path d="M5.571 7.143c-1.714 0-1.714.857-1.714 1.714l.002.743L3 9.081v.81l5.143 3.68C9 14 9 14 9.857 13.571c1.7-1.026 4.098-2.858 5.143-3.663v-.827l-.859.52.002-.744c0-.857 0-1.714-1.714-1.714zM12.43 8c.857 0 .857 0 .857.857v1.26l-4.288 2.586-4.284-2.587V8.857c0-.857 0-.857.857-.857z" style="line-height:125%;-inkscape-font-specification:Ubuntu;text-align:center" font-weight="400" font-size="15" font-family="Ubuntu" letter-spacing="0" word-spacing="0" text-anchor="middle" fill="#465b63"/><path style="line-height:normal;font-variant-ligatures:normal;font-variant-position:normal;font-variant-caps:normal;font-variant-numeric:normal;font-variant-alternates:normal;font-feature-settings:normal;text-indent:0;text-align:start;text-decoration-line:none;text-decoration-style:solid;text-decoration-color:#000;text-transform:none;text-orientation:mixed;white-space:normal;shape-padding:0;isolation:auto;mix-blend-mode:normal;marker:none" d="M6 9v1h6V9z" color="#000" font-weight="400" font-family="sans-serif" overflow="visible" fill="#a7a7f1"/></svg>
